X: 14697
T: Gan Ainm
R: jig
M: 6/8
K: Amajor
M: 7/8
|:c2 A2 cde|cd ad a (3age|ef ce c (3cBA|[EBe]2 (3DEF GeB|
A,c A2 cde|cd e2 gab|c'b ba a (3age|1 dc cA (3BBA B:|2 dc cA (3BBA G||
|:[DF]2 A2 [EG]AB|(3BBA aA gec|[Ddf]2 ef c (3cBA|[EBe]2 AB [Fce]2 A|
[DF]2 A2 [EG]AB|(3BBA aA gec|dd FG ABc|[EBe]2 (3ABc ecA:|

